!!!COM: Mozart, Wolfgang Amadeus
!!!OTL: Musikalische Würfelspiele, Kontre-Tänze
!!!SCA: K<sup>6</sup> Anh. C30.01 (K<sup>3</sup> Anh. 294d)
**kern	**kern
*staff2	*staff2
*clefF4	*clefG2
*M2/4	*M2/4
*MM110	*MM110
*>[A,A1,A,A2,B]	*>[A,A1,A,A2,B]
*>norep[A,A2,B]	*>norep[A,A2,B]
*>A	*>A
=165	=165
4C	8cc
.	16ee
.	16cc
4r	8g
.	8g
=152	=152
4C	8gg
.	16ccc
.	16gg
4r	8ee
.	8cc
=90	=90
8G	8dd
16GG	8b
16AA	.
16BB	8g
16AA	.
16BB	8b
16GG	.
=71	=71
16C	8e 8cc
16CC	.
16EE	8e 8cc
16GG	.
16C	4e 4cc
16E	.
16G	.
16E	.
=120	=120
4D	16dd
.	16ee
.	16ff#
.	16gg
4F#	16aa
.	16bb
.	16ccc
.	16aa
=39	=39
4BB 4G	16gg
.	16ff#
.	16ee
.	16dd
4r	16cc
.	16b
.	16a
.	16g
=137	=137
4C	8ee
.	8ccc
4D	16bb
.	16aa
.	16gg
.	16ff#
=130	=130
*>A1	*>A1
4GG	4g 4b 4gg
16G	4r
16F	.
16E	.
16D	.
=130:|!	=130:|!
*>A2	*>A2
4GG	4g 4b 4gg
16GG	4r
16AA	.
16BB	.
16C#	.
=136||	=136||
*>B	*>B
4D	8dd
.	16ff#
.	16aa
4F#	8ddd
.	8ddd
=91	=91
16BB	4gg
16D	.
16G	.
16D	.
16BB	8bb
16GG	.
16AA	8r
16BB	.
=175	=175
4C	8ccc
.	8gg
4C	8ee
.	8cc
=107	=107
16BB	8dd
16D	.
16G	4b
16D	.
16G	.
16F	.
16E	8g
16D	.
=75	=75
16C	4cc
16GG	.
16AA	.
16BB	.
16C	8cc
16GG	.
16AA	8cc
16BB	.
=48	=48
4C	8cc
.	16cc
.	16ee
4r	8gg
.	16gg
.	16ee
=60	=60
8G	8ff
16GG	8ff
16AA	.
16BB	8dd
16C	.
16D	8dd
16BB	.
=74	=74
4C	4cc
4CC	4c
==	==
*-	*-
